src/lib/packages/icons/src/assets/line/newspaper.svg

<svg width="24" height="24" viewBox="0 0 24 24" fill="none" xmlns="http://www.w3.org/2000/svg">
<path d="M13.0769 11.75H9.9231C8.8911 11.75 8.25 12.391 8.25 13.423V15.577C8.25 16.609 8.8911 17.25 9.9231 17.25H13.0769C14.1089 17.25 14.75 16.609 14.75 15.577V13.423C14.75 12.391 14.1089 11.75 13.0769 11.75ZM13.25 15.577C13.25 15.67 13.238 15.72 13.241 15.732C13.22 15.739 13.1699 15.751 13.0769 15.751H9.9231C9.8411 15.751 9.7919 15.742 9.7749 15.742C9.7719 15.742 9.77004 15.742 9.76904 15.742C9.76204 15.72 9.75 15.67 9.75 15.577V13.423C9.75 13.33 9.76203 13.28 9.75903 13.268C9.78003 13.261 9.8301 13.249 9.9231 13.249H13.0769C13.1729 13.249 13.223 13.26 13.231 13.258C13.238 13.28 13.25 13.33 13.25 13.423V15.577ZM19.75 13C19.75 13.414 19.414 13.75 19 13.75H17C16.586 13.75 16.25 13.414 16.25 13C16.25 12.586 16.586 12.25 17 12.25H19C19.414 12.25 19.75 12.586 19.75 13ZM19.75 16C19.75 16.414 19.414 16.75 19 16.75H17C16.586 16.75 16.25 16.414 16.25 16C16.25 15.586 16.586 15.25 17 15.25H19C19.414 15.25 19.75 15.586 19.75 16ZM19.75 9C19.75 9.414 19.414 9.75 19 9.75H9C8.586 9.75 8.25 9.414 8.25 9C8.25 8.586 8.586 8.25 9 8.25H19C19.414 8.25 19.75 8.586 19.75 9ZM19 4.25H9C6.582 4.25 5.25 5.582 5.25 8V8.25H4C2.483 8.25 1.25 9.484 1.25 11V18C1.25 19.516 2.483 20.75 4 20.75H19C21.418 20.75 22.75 19.418 22.75 17V8C22.75 5.582 21.418 4.25 19 4.25ZM5.25 18C5.25 18.689 4.689 19.25 4 19.25C3.311 19.25 2.75 18.689 2.75 18V11C2.75 10.311 3.311 9.75 4 9.75H5.25V18ZM21.25 17C21.25 18.577 20.577 19.25 19 19.25H6.44897C6.64097 18.875 6.75 18.45 6.75 18V8C6.75 6.423 7.423 5.75 9 5.75H19C20.577 5.75 21.25 6.423 21.25 8V17Z" fill="currentColor"/>
</svg>

<svg xmlns="http://www.w3.org/2000/svg" width="24" height="24" fill="none"><path fill="currentColor" d="M13.077 11.75H9.923c-1.032 0-1.673.641-1.673 1.673v2.154c0 1.032.641 1.673 1.673 1.673h3.154c1.032 0 1.673-.641 1.673-1.673v-2.154c0-1.032-.641-1.673-1.673-1.673Zm.173 3.827c0 .093-.012.143-.009.155a.54.54 0 0 1-.164.019H9.923c-.082 0-.131-.009-.148-.009h-.006a.552.552 0 0 1-.019-.165v-2.154c0-.093.012-.143.009-.155a.539.539 0 0 1 .164-.019h3.154c.096 0 .146.011.154.009a.553.553 0 0 1 .019.165v2.154ZM19.75 13a.75.75 0 0 1-.75.75h-2a.75.75 0 0 1 0-1.5h2a.75.75 0 0 1 .75.75Zm0 3a.75.75 0 0 1-.75.75h-2a.75.75 0 0 1 0-1.5h2a.75.75 0 0 1 .75.75Zm0-7a.75.75 0 0 1-.75.75H9a.75.75 0 0 1 0-1.5h10a.75.75 0 0 1 .75.75ZM19 4.25H9C6.582 4.25 5.25 5.582 5.25 8v.25H4A2.753 2.753 0 0 0 1.25 11v7A2.753 2.753 0 0 0 4 20.75h15c2.418 0 3.75-1.332 3.75-3.75V8c0-2.418-1.332-3.75-3.75-3.75ZM5.25 18c0 .689-.561 1.25-1.25 1.25S2.75 18.689 2.75 18v-7c0-.689.561-1.25 1.25-1.25h1.25V18Zm16-1c0 1.577-.673 2.25-2.25 2.25H6.449c.192-.375.301-.8.301-1.25V8c0-1.577.673-2.25 2.25-2.25h10c1.577 0 2.25.673 2.25 2.25v9Z"/></svg>
